src/pos-icons/skip-backward-outline.svg

<svg height="24" viewBox="0 0 24 24" width="24" xmlns="http://www.w3.org/2000/svg"><path d="m18 14.17-2.17-2.17 2.17-2.17zm2 4.83v-14l-7 7m-9 7h2v-14h-2m7 9.17-2.17-2.17 2.17-2.17zm2 4.83v-14l-7 7"/></svg>

<?xml version="1.0" encoding="UTF-8"?><!DOCTYPE svg PUBLIC "-//W3C//DTD SVG 1.1//EN" "http://www.w3.org/Graphics/SVG/1.1/DTD/svg11.dtd"><svg xmlns="http://www.w3.org/2000/svg" xmlns:xlink="http://www.w3.org/1999/xlink" version="1.1" id="mdi-skip-backward-outline" width="24" height="24" viewBox="0 0 24 24"><path d="M18,14.17L15.83,12L18,9.83V14.17M20,19V5L13,12M4,19H6V5H4M11,14.17L8.83,12L11,9.83V14.17M13,19V5L6,12" /></svg>
